assets/logos/icons/logout.svg

<svg height="24" viewBox="0 0 24 24" width="24" xmlns="http://www.w3.org/2000/svg"><path d="m3.99999995 3.99999995v15.99999995h13.99999995v2h-13.99999995c-1.1.0000002-2-.8999999-2-2v-15.99999995c0-1.1.9-2 2-2h13.99999995v2zm14.10000005 7.00000005-2.6-2.60000002 1.4-1.40000001 4.9 4.90000003-4.9 4.9-1.4-1.4 2.5-2.4h-8.00000001v-2z" fill="#492f5c" fill-rule="evenodd"/></svg>

<svg xmlns="http://www.w3.org/2000/svg" xmlns:xlink="http://www.w3.org/1999/xlink" width="24" height="24" viewBox="0 0 24 24">
  <defs>
    <path id="logout-a" d="M3.99999995,3.99999995 L3.99999995,19.9999999 L17.9999999,19.9999999 L17.9999999,21.9999999 L3.99999995,21.9999999 C2.89999995,22.0000001 1.99999995,21.1 1.99999995,19.9999999 L1.99999995,3.99999995 C1.99999995,2.89999995 2.89999995,1.99999995 3.99999995,1.99999995 L17.9999999,1.99999995 L17.9999999,3.99999995 L3.99999995,3.99999995 Z M18.1,11 L15.5,8.39999998 L16.9,6.99999997 L21.8,11.9 L16.9,16.8 L15.5,15.4 L18,13 L9.99999999,13 L9.99999999,11 L18.1,11 Z"/>
  </defs>
  <use fill="#492F5C" fill-rule="evenodd" xlink:href="#logout-a"/>
</svg>
